img/union-11.svg

<svg fill="none" height="95" viewBox="0 0 217 95" width="217" xmlns="http://www.w3.org/2000/svg"><path clip-rule="evenodd" d="m215.966 45.9184c.957-3.6089-2.345-6.9036-5.952-5.9372l-22.851 6.123c-1.607.4304-3.354.0351-4.426-1.236-4.032-4.7807-5.731-11.1213-4.63-17.2775.293-1.6368 1.609-2.853 3.215-3.2834l22.587-6.0521c3.607-.9664 4.82-5.4711 2.186-8.1177l-8.596-8.6387c-1.227-1.233081-3.02-1.715814-4.7-1.265583l-29.84 7.995513c-1.68.45023-2.992 1.76468-3.438 3.44607l-2.215 8.3492c-1.487 5.6047-5.858 9.9861-11.459 11.4869l-135.4622 36.2971c-7.33133 1.9644-11.68209 9.5002-9.717661 16.8315 1.964431 7.3314 9.500161 11.6821 16.831561 9.7177l135.4603-36.2965c5.601-1.5008 11.577.1084 15.667 4.2186l6.096 6.1263c1.227 1.2331 3.02 1.7158 4.7 1.2656l29.84-7.9956c1.68-.4502 2.992-1.7646 3.438-3.446z" fill="#fff500" fill-rule="evenodd"/></svg>

<svg width="217" height="95" viewBox="0 0 217 95" fill="none" xmlns="http://www.w3.org/2000/svg">
<path fill-rule="evenodd" clip-rule="evenodd" d="M215.966 45.9184C216.923 42.3095 213.621 39.0148 210.014 39.9812L187.163 46.1042C185.556 46.5346 183.809 46.1393 182.737 44.8682C178.705 40.0875 177.006 33.7469 178.107 27.5907C178.4 25.9539 179.716 24.7377 181.322 24.3073L203.909 18.2552C207.516 17.2888 208.729 12.7841 206.095 10.1375L197.499 1.4988C196.272 0.265719 194.479 -0.217014 192.799 0.233217L162.959 8.22873C161.279 8.67896 159.967 9.99341 159.521 11.6748L157.306 20.024C155.819 25.6287 151.448 30.0101 145.847 31.5109L10.3848 67.808C3.05347 69.7724 -1.29729 77.3082 0.667139 84.6395C2.63157 91.9709 10.1673 96.3216 17.4987 94.3572L152.959 58.0607C158.56 56.5599 164.536 58.1691 168.626 62.2793L174.722 68.4056C175.949 69.6387 177.742 70.1214 179.422 69.6712L209.262 61.6756C210.942 61.2254 212.254 59.911 212.7 58.2296L215.966 45.9184Z" fill="#FFF500"/>
</svg>
